lib/preview/nrk-logo-preview-nrk-radio.svg

<svg width="83" height="14" viewBox="0 0 83 14" fill="none" xmlns="http://www.w3.org/2000/svg">
<path d="M6.10352e-05 13V1.00109H3.93725V13H6.10352e-05ZM9.29387 2.91078L11.5581 13H7.24923L4.54555 1.00109H6.96224C7.51641 0.993898 8.05412 1.18925 8.47456 1.55039C8.89568 1.89638 9.18501 2.3767 9.29387 2.91078ZM12.1496 13V1.00109H16.0868V13H12.1496ZM19.0605 5.5641C18.6363 5.56824 18.2188 5.45723 17.8526 5.24296C17.4913 5.03412 17.1912 4.73396 16.9823 4.3726C16.7678 4.00633 16.6568 3.58876 16.661 3.16432C16.6562 2.74246 16.7673 2.32738 16.9823 1.96443C17.1934 1.60699 17.4932 1.31009 17.8526 1.10252C18.2189 0.888502 18.6363 0.777515 19.0605 0.781384C19.4823 0.776842 19.8972 0.887929 20.2603 1.10252C20.6161 1.31191 20.9127 1.60856 21.1221 1.96443C21.3369 2.32748 21.448 2.74249 21.4434 3.16432C21.4473 3.58873 21.3363 4.00623 21.1221 4.3726C20.9149 4.73238 20.618 5.03228 20.2603 5.24296C19.8972 5.45798 19.4825 5.56909 19.0605 5.5641ZM22.0517 13V1.00109H25.9892V13H22.0517ZM30.9738 7.55823C30.9849 7.56988 31.0693 7.70788 31.2272 7.97227C31.3851 8.23666 31.5907 8.57468 31.844 8.98629C32.0975 9.39771 32.3649 9.83426 32.6464 10.296C32.9278 10.7577 33.1927 11.1944 33.4409 11.6058C33.6882 12.0172 33.9698 12.4819 34.2858 13H29.9599C29.6893 12.5606 29.4442 12.1635 29.2245 11.8086C29.0049 11.4537 28.7714 11.0706 28.5239 10.6594C28.2759 10.2485 28.0307 9.84854 27.7883 9.45946C27.5459 9.07039 27.3376 8.72961 27.1633 8.43706C26.9883 8.14432 26.8671 7.94712 26.7997 7.84554C26.6326 7.59344 26.5337 7.30229 26.5127 7.00054C26.5295 6.71093 26.6227 6.43098 26.7828 6.18911C26.8504 6.07645 26.9743 5.87643 27.1546 5.58913C27.3348 5.30183 27.5461 4.96105 27.7883 4.56672C28.0305 4.17239 28.2757 3.7696 28.5239 3.35837C28.7721 2.94715 29.0056 2.56124 29.2245 2.20071C29.4446 1.84055 29.6897 1.44059 29.9599 1.00081H34.2858L30.9397 6.4595C30.8361 6.62157 30.7778 6.80835 30.7707 7.00054C30.7818 7.20232 30.8529 7.39632 30.9738 7.55823Z" fill="white"/>
<path d="M44.7404 8.0412C44.9652 8.0068 45.1871 7.95501 45.4039 7.88632C45.8432 7.74964 46.2489 7.52234 46.5949 7.21902C46.9395 6.91128 47.2108 6.53029 47.3889 6.10399C47.5891 5.6137 47.6869 5.08763 47.6761 4.55814C47.6837 3.9405 47.5539 3.32887 47.296 2.76757C47.0296 2.21309 46.591 1.75968 46.0458 1.47491C45.3183 1.12154 44.5139 0.955953 43.7059 0.993354H38.8572V12.9885H40.6143V8.39317H43.1988L46.1894 12.9885H48.2503L45.4458 8.83272L44.7404 8.0412ZM44.7703 2.69126C45.1202 2.82464 45.4128 3.07561 45.5979 3.40111C45.7914 3.77941 45.8844 4.20111 45.8682 4.62572C45.8892 5.0957 45.775 5.56186 45.539 5.96884C45.3156 6.31541 44.9825 6.57709 44.5929 6.71217C44.123 6.87374 43.6283 6.95097 43.1315 6.94026H40.6143V2.46317H43.334C43.8229 2.4469 44.3105 2.52433 44.7703 2.69126Z" fill="white"/>
<path d="M57.3565 11.9244C57.2329 11.9357 57.1085 11.9171 56.9938 11.87C56.879 11.8228 56.7774 11.7487 56.6975 11.6538C56.5408 11.3831 56.4757 11.0691 56.5117 10.7584L56.5455 7.27841C56.5492 6.91346 56.5037 6.54966 56.4103 6.19686C56.3281 5.88758 56.1908 5.59574 56.0049 5.33529C55.8168 5.08074 55.5781 4.86791 55.3038 4.7102C54.9849 4.52919 54.6402 4.39818 54.2816 4.32186C53.8431 4.22713 53.3955 4.1818 52.9469 4.18671C52.5911 4.18647 52.2356 4.20895 51.8826 4.25401C51.549 4.29596 51.2188 4.36086 50.8942 4.44828C50.5932 4.53006 50.2971 4.62887 50.0073 4.74423L49.8046 6.18029C50.0862 6.07892 50.3538 5.99441 50.6074 5.92683C50.861 5.85925 51.1058 5.80298 51.342 5.75793C51.5737 5.71359 51.8078 5.68263 52.0431 5.66526C52.2738 5.64799 52.5018 5.63943 52.7273 5.63962C53.0718 5.63235 53.4157 5.67219 53.7495 5.75793C53.9929 5.81888 54.2168 5.941 54.3999 6.11271C54.5629 6.27979 54.6793 6.4865 54.7378 6.71244C54.8098 6.99106 54.8439 7.27814 54.8391 7.56589L54.8372 7.9897L52.8624 8.12341C52.187 8.14229 51.5216 8.29137 50.9027 8.56241C50.4396 8.7651 50.0398 9.08906 49.7455 9.50007C49.4957 9.86586 49.3631 10.2989 49.3653 10.7418C49.3621 11.1574 49.4638 11.567 49.661 11.9329C49.8676 12.3087 50.1785 12.6168 50.5564 12.8198C51.0172 13.0595 51.5323 13.176 52.0515 13.1577C52.538 13.1689 53.0223 13.0887 53.4791 12.9212C53.8742 12.7667 54.2356 12.5372 54.5435 12.2454C54.6603 12.1333 54.7712 12.0151 54.8758 11.8915C54.9086 12.0663 54.9705 12.2345 55.0588 12.389C55.2092 12.6478 55.4408 12.8496 55.7177 12.9634C56.0236 13.0863 56.351 13.1466 56.6806 13.1408C56.782 13.1408 56.8806 13.138 56.9763 13.1324C57.0703 13.127 57.1636 13.1129 57.2551 13.0902C57.3452 13.0676 57.4266 13.0479 57.5001 13.031C57.5662 13.0162 57.6312 12.9965 57.6943 12.9719L57.8801 11.8399C57.7869 11.872 57.6907 11.8946 57.5929 11.9075C57.5145 11.9181 57.4356 11.9237 57.3565 11.9244ZM54.5435 11.1642C54.3604 11.309 54.1621 11.4336 53.9522 11.5359C53.7432 11.6376 53.5218 11.7115 53.2935 11.7555C53.0569 11.8012 52.8164 11.8239 52.5753 11.8231C52.3 11.8309 52.0262 11.779 51.7728 11.671C51.5666 11.5816 51.3927 11.4313 51.2744 11.2402C51.1574 11.0377 51.0989 10.8066 51.1054 10.5728C51.0891 10.2912 51.1664 10.0121 51.3251 9.77883C51.5091 9.5643 51.7583 9.41595 52.0346 9.35647C52.4663 9.25486 52.9094 9.20944 53.3527 9.22132H54.8318L54.8242 10.8983C54.7384 10.9947 54.6445 11.0838 54.5435 11.1642Z" fill="white"/>
<path d="M65.3483 4.59668C65.3311 4.58993 65.3151 4.58172 65.2977 4.57496C64.9819 4.45604 64.657 4.36282 64.3262 4.2962C63.9396 4.22005 63.5462 4.18337 63.1521 4.1867C62.414 4.18217 61.688 4.37462 61.049 4.74421C60.3894 5.12775 59.8485 5.6861 59.4862 6.35763C59.0704 7.15102 58.8667 8.03849 58.8949 8.93381C58.8755 9.70675 59.0285 10.4743 59.3426 11.1808C59.6168 11.7842 60.0637 12.2927 60.6269 12.6421C61.2325 12.9986 61.9262 13.1772 62.6286 13.1574C63.0595 13.16 63.4888 13.1032 63.9042 12.9885C64.3181 12.8697 64.7134 12.6934 65.0783 12.4647C65.2047 12.3867 65.3318 12.2992 65.4579 12.2077L65.6699 12.9885H67.0719V0.25L65.3486 0.486548L65.3483 4.59668ZM64.4445 11.544C64.0593 11.6958 63.6504 11.7788 63.2365 11.7892C62.7537 11.8033 62.2759 11.6896 61.8512 11.4595C61.4561 11.2259 61.1478 10.8701 60.9727 10.4458C60.7535 9.90142 60.6499 9.31734 60.6686 8.73074C60.6488 8.12993 60.7643 7.53237 61.0065 6.98217C61.2128 6.53573 61.5521 6.16397 61.9779 5.91781C62.4412 5.66563 62.9629 5.54031 63.4902 5.55456C63.7616 5.55394 64.0325 5.57377 64.3009 5.61375C64.5672 5.65497 64.8299 5.71718 65.0865 5.79984C65.169 5.82603 65.2599 5.86096 65.3483 5.89306V11.0999C65.0609 11.2752 64.7581 11.4238 64.4437 11.544H64.4445Z" fill="white"/>
<path d="M69.7063 12.9885H71.4296V4.20333L69.7063 4.45672V12.9885Z" fill="white"/>
<path d="M71.1846 0.663908C71.0092 0.556732 70.8072 0.50109 70.6017 0.50339C70.3936 0.50176 70.1891 0.557295 70.0104 0.663908C69.8343 0.767092 69.6863 0.912171 69.5796 1.08627C69.4725 1.26165 69.4168 1.46365 69.4191 1.66915C69.4174 1.87723 69.473 2.08174 69.5796 2.26042C69.6828 2.43724 69.8316 2.58311 70.0104 2.68278C70.1909 2.78426 70.3947 2.8367 70.6017 2.83484C70.8061 2.83734 71.0074 2.78482 71.1846 2.68278C71.3585 2.58234 71.5016 2.43629 71.5985 2.26042C71.7001 2.08002 71.7525 1.87617 71.7506 1.66915C71.753 1.46475 71.7005 1.26343 71.5985 1.08627C71.4981 0.912992 71.3558 0.767746 71.1846 0.663908Z" fill="white"/>
<path d="M81.7011 6.25606C81.3645 5.61015 80.8444 5.07815 80.2062 4.72705C79.5023 4.35321 78.7139 4.16713 77.9171 4.18672C77.1128 4.16828 76.3177 4.36047 75.6106 4.74424C74.958 5.10944 74.4243 5.65482 74.0732 6.31517C73.692 7.05616 73.5032 7.88114 73.5242 8.7142C73.5027 9.54077 73.6794 10.3605 74.0395 11.1048C74.3631 11.7545 74.8793 12.2886 75.5178 12.634C76.205 12.9939 76.9722 13.174 77.7478 13.1575C78.5598 13.1736 79.3624 12.9816 80.0793 12.5999C80.7487 12.2349 81.2976 11.6831 81.6591 11.0118C82.0514 10.2622 82.2462 9.42491 82.2251 8.57905C82.2443 7.7734 82.0643 6.97547 81.7011 6.25606ZM80.1046 10.3867C79.9149 10.8258 79.5932 11.1949 79.1842 11.4427C78.7731 11.678 78.3061 11.7977 77.8326 11.7893C77.3682 11.8008 76.9105 11.6774 76.5148 11.4342C76.1233 11.174 75.8176 10.8038 75.6363 10.3701C75.4064 9.81358 75.2971 9.21466 75.3156 8.61281C75.2956 8.02735 75.4051 7.44468 75.6363 6.90644C75.8259 6.48345 76.1415 6.12944 76.5401 5.89281C76.9664 5.65822 77.4475 5.54159 77.9339 5.55493C78.3136 5.54545 78.691 5.61747 79.0406 5.76612C79.3467 5.90425 79.6138 6.1161 79.818 6.38275C80.0356 6.67267 80.1935 7.00296 80.2823 7.35445C80.388 7.76541 80.4391 8.1885 80.4343 8.61281C80.4541 9.22101 80.3415 9.82626 80.1046 10.3867Z" fill="white"/>
</svg>

<svg xmlns="http://www.w3.org/2000/svg" viewBox="0 0 83 14"><path fill="#fff" d="M0 13V1.001h3.937V13H0ZM9.294 2.91 11.558 13H7.25L4.546 1.001h2.416a2.276 2.276 0 0 1 1.513.55c.42.345.71.826.819 1.36ZM12.15 13V1.001h3.937V13H12.15Zm6.91-7.436a2.383 2.383 0 0 1-2.4-2.4 2.303 2.303 0 0 1 .322-1.2 2.411 2.411 0 0 1 3.278-.861c.356.209.653.506.862.861.215.363.326.778.321 1.2a2.4 2.4 0 0 1-1.183 2.079 2.3 2.3 0 0 1-1.2.321ZM22.053 13V1.001h3.937V13h-3.937Zm8.922-5.442c.01.012.095.15.253.414.158.265.364.603.617 1.014a325.765 325.765 0 0 1 1.597 2.62c.247.411.529.876.845 1.394H29.96c-.27-.44-.516-.836-.736-1.191-.22-.355-.453-.738-.7-1.15-.248-.41-.493-.81-.736-1.2-.242-.389-.45-.73-.625-1.022a17.98 17.98 0 0 0-.363-.591A1.75 1.75 0 0 1 26.513 7c.016-.29.11-.57.27-.812.067-.113.191-.313.372-.6a182.106 182.106 0 0 0 1.37-2.23c.247-.412.48-.798.7-1.158L29.96 1h4.326L30.94 6.46a1.078 1.078 0 0 0-.17.54c.012.202.083.396.204.558ZM44.74 8.041c.225-.034.447-.086.664-.155.44-.136.845-.364 1.19-.667.346-.308.617-.689.795-1.115.2-.49.298-1.016.287-1.546a4.166 4.166 0 0 0-.38-1.79 2.852 2.852 0 0 0-1.25-1.293 4.843 4.843 0 0 0-2.34-.482h-4.849v11.995h1.757V8.393H43.2l2.99 4.595h2.061l-2.804-4.155-.706-.792Zm.03-5.35c.35.134.643.385.828.71.193.378.286.8.27 1.225.021.47-.093.936-.329 1.343a1.844 1.844 0 0 1-.946.743c-.47.162-.965.239-1.462.228h-2.517V2.463h2.72c.489-.016.976.061 1.436.228ZM57.356 11.924a.77.77 0 0 1-.659-.27 1.453 1.453 0 0 1-.185-.896l.033-3.48a4.065 4.065 0 0 0-.135-1.081 2.658 2.658 0 0 0-.405-.862 2.293 2.293 0 0 0-.701-.625 3.58 3.58 0 0 0-1.022-.388 6.009 6.009 0 0 0-1.335-.135c-.356 0-.711.022-1.064.067a7.306 7.306 0 0 0-.989.194c-.3.082-.597.18-.887.296l-.202 1.436a9.923 9.923 0 0 1 1.537-.422c.232-.044.466-.075.701-.093a9.06 9.06 0 0 1 .684-.025c.345-.008.689.032 1.023.118.243.06.467.183.65.355.163.167.28.373.338.6.072.278.106.565.101.853l-.002.424-1.975.133a5.25 5.25 0 0 0-1.96.44 2.808 2.808 0 0 0-1.157.937c-.25.366-.382.799-.38 1.242a2.47 2.47 0 0 0 .296 1.19c.207.377.517.685.895.888.461.24.976.356 1.495.338.487.01.971-.07 1.428-.237a3.288 3.288 0 0 0 1.065-.676c.116-.112.227-.23.332-.353.033.174.095.343.183.497.15.259.382.46.659.574.306.123.633.184.963.178.101 0 .2-.003.295-.009a1.52 1.52 0 0 0 .28-.042l.244-.059c.066-.015.131-.035.194-.06l.186-1.131c-.093.032-.19.055-.287.068-.079.01-.157.016-.237.016Zm-2.813-.76c-.183.145-.38.27-.59.372-.21.102-.431.175-.66.22a3.722 3.722 0 0 1-.718.067 1.909 1.909 0 0 1-.802-.152c-.206-.09-.38-.24-.499-.43a1.264 1.264 0 0 1-.169-.668 1.28 1.28 0 0 1 .22-.794c.184-.215.433-.363.71-.423a5.151 5.151 0 0 1 1.318-.135h1.479l-.008 1.677c-.086.097-.18.186-.28.266ZM65.348 4.597l-.05-.022a5.82 5.82 0 0 0-2.146-.388 4.15 4.15 0 0 0-2.103.557 4.14 4.14 0 0 0-1.563 1.614 5.197 5.197 0 0 0-.591 2.576 5.21 5.21 0 0 0 .448 2.247 3.351 3.351 0 0 0 1.284 1.461c.605.357 1.3.535 2.002.515.43.003.86-.054 1.275-.168.414-.12.81-.296 1.174-.524.127-.078.254-.166.38-.257l.212.78h1.402V.25l-1.723.237v4.11Zm-.903 6.947a3.537 3.537 0 0 1-1.208.245 2.74 2.74 0 0 1-1.386-.33 2.115 2.115 0 0 1-.878-1.013 4.23 4.23 0 0 1-.304-1.715c-.02-.601.095-1.199.338-1.749.206-.446.545-.818.97-1.064a2.994 2.994 0 0 1 1.513-.363 5.113 5.113 0 0 1 1.596.245c.083.026.174.061.262.093V11.1c-.287.175-.59.324-.904.444ZM69.706 12.989h1.724V4.203l-1.724.254v8.532ZM71.185.664a1.094 1.094 0 0 0-.583-.16 1.137 1.137 0 0 0-.592.16 1.241 1.241 0 0 0-.43.422 1.095 1.095 0 0 0-.16.583c-.003.208.053.413.16.591.103.177.252.323.43.423.18.101.385.154.592.152.204.002.405-.05.583-.152.174-.1.317-.247.413-.423.102-.18.154-.384.153-.59a1.141 1.141 0 0 0-.153-.584 1.194 1.194 0 0 0-.413-.422ZM81.701 6.256a3.693 3.693 0 0 0-1.495-1.529 4.637 4.637 0 0 0-2.289-.54 4.614 4.614 0 0 0-2.306.557 3.896 3.896 0 0 0-1.538 1.571 4.97 4.97 0 0 0-.549 2.4 5.18 5.18 0 0 0 .516 2.39c.323.65.84 1.184 1.478 1.529.687.36 1.454.54 2.23.524a4.76 4.76 0 0 0 2.331-.558 3.933 3.933 0 0 0 1.58-1.588c.392-.75.587-1.587.566-2.433a4.896 4.896 0 0 0-.524-2.323Zm-1.596 4.13c-.19.44-.512.809-.92 1.057a2.627 2.627 0 0 1-1.352.346 2.403 2.403 0 0 1-1.318-.355 2.38 2.38 0 0 1-.879-1.064 4.26 4.26 0 0 1-.32-1.757 3.98 3.98 0 0 1 .32-1.707c.19-.423.505-.777.904-1.013a2.735 2.735 0 0 1 1.394-.338c.38-.01.757.062 1.107.211.306.138.573.35.777.617.218.29.376.62.464.971.106.411.157.834.152 1.259a4.205 4.205 0 0 1-.33 1.774Z"/></svg>
